priv/static/svgs/icons_new/arrows-cross-lines.svg

<svg width="32" height="32" viewBox="0 0 32 32" fill="none" xmlns="http://www.w3.org/2000/svg">
<path d="M4 22.0855C3.72386 22.0855 3.5 22.3094 3.5 22.5855C3.5 22.8617 3.72386 23.0855 4 23.0855V22.0855ZM6.73174 22.5855L6.74285 22.0855H6.73174V22.5855ZM15.9514 15.2684L15.5009 15.0515L15.9514 15.2684ZM4 9.50169C3.72386 9.50169 3.5 9.72554 3.5 10.0017C3.5 10.2778 3.72386 10.5017 4 10.5017V9.50169ZM6.73174 10.0017V10.5018L6.74285 10.5016L6.73174 10.0017ZM17.5084 18.8076C17.333 18.5942 17.0179 18.5635 16.8046 18.7388C16.5913 18.9142 16.5605 19.2293 16.7359 19.4426L17.5084 18.8076ZM13.2501 13.9278C13.4257 14.1409 13.7408 14.1713 13.9539 13.9957C14.167 13.82 14.1974 13.5049 14.0218 13.2918L13.2501 13.9278ZM4 23.0855H6.73174V22.0855H4V23.0855ZM6.72063 23.0854C7.90084 23.1117 9.53634 22.8612 11.2774 21.7647C13.0176 20.6687 14.8311 18.7478 16.4019 15.4853L15.5009 15.0515C13.9949 18.1793 12.296 19.9414 10.7445 20.9185C9.1937 21.8952 7.75779 22.1082 6.74285 22.0857L6.72063 23.0854ZM16.4019 15.4853C17.2024 13.8227 19.6817 10.5 24.5369 10.5V9.50002C19.148 9.50002 16.3915 13.2018 15.5009 15.0515L16.4019 15.4853ZM24.5369 10.5H28.0003V9.50002H24.5369V10.5ZM4 10.5017H6.73174V9.50169H4V10.5017ZM24.5369 23.0872H28.0003V22.0872H24.5369V23.0872ZM16.7359 19.4426C18.1748 21.1931 20.6884 23.0872 24.5369 23.0872V22.0872C21.059 22.0872 18.8079 20.3885 17.5084 18.8076L16.7359 19.4426ZM6.74285 10.5016C8.27615 10.4675 10.8113 10.9687 13.2501 13.9278L14.0218 13.2918C11.3697 10.0738 8.53011 9.4616 6.72063 9.50181L6.74285 10.5016Z" fill="black"/>
<path d="M24.771 6.78955L27.9434 9.96191L24.771 13.2466" stroke="black" stroke-linecap="round" stroke-linejoin="round"/>
<path d="M24.771 19.3589L27.9434 22.5312L24.771 25.8159" stroke="black" stroke-linecap="round" stroke-linejoin="round"/>
</svg>

<svg width="32" height="32" viewBox="0 0 32 32" fill="none" xmlns="http://www.w3.org/2000/svg">
  <symbol id="item" viewBox="0 0 32 32"  fill="none">
    <path d="M4 22.085a.5.5 0 0 0 0 1v-1Zm2.732.5.01-.5h-.01v.5Zm9.22-7.317-.451-.216.45.216ZM4 9.502a.5.5 0 1 0 0 1v-1Zm2.732.5v.5h.01l-.01-.5Zm10.776 8.806a.5.5 0 1 0-.772.635l.772-.635Zm-4.258-4.88a.5.5 0 1 0 .772-.636l-.772.636ZM4 23.085h2.732v-1H4v1Zm2.72 0c1.18.027 2.816-.224 4.557-1.32 1.74-1.096 3.554-3.017 5.125-6.28l-.901-.433c-1.506 3.127-3.205 4.89-4.756 5.867-1.551.976-2.987 1.19-4.002 1.167l-.022 1Zm9.682-7.6c.8-1.662 3.28-4.985 8.135-4.985v-1c-5.389 0-8.145 3.702-9.036 5.552l.9.433Zm8.135-4.985H28v-1h-3.463v1ZM4 10.502h2.732v-1H4v1Zm20.537 12.585H28v-1h-3.463v1Zm-7.801-3.644c1.439 1.75 3.952 3.644 7.8 3.644v-1c-3.477 0-5.728-1.698-7.028-3.28l-.772.636Zm-9.993-8.941c1.533-.035 4.068.467 6.507 3.426l.772-.636c-2.652-3.218-5.492-3.83-7.301-3.79l.022 1Z" fill="currentColor"/><path d="M25.125 6.436a.5.5 0 0 0-.708.707l.707-.707Zm2.818 3.526.36.347a.5.5 0 0 0-.006-.7l-.354.353Zm-3.532 2.937a.5.5 0 0 0 .72.695l-.72-.695Zm.006-5.756 3.173 3.173.707-.708-3.172-3.172-.708.707Zm3.167 2.472-3.173 3.284.72.695 3.172-3.285-.72-.694ZM25.125 19.005a.5.5 0 0 0-.708.707l.707-.707Zm2.818 3.526.36.348a.5.5 0 0 0-.006-.701l-.354.353Zm-3.532 2.938a.5.5 0 0 0 .72.694l-.72-.694Zm.006-5.757 3.173 3.173.707-.707-3.172-3.173-.708.707Zm3.167 2.472-3.173 3.285.72.694 3.172-3.284-.72-.695Z" fill="currentColor"/>
  </symbol>
</svg>
